X:52
T:Young Fox. ThoH.052, The
Q:3/8=100
M:6/8
L:1/8
B:Thompson's Compleat Collection of 120 Favourite Hornpipes.
Z:Village Music Project, Simon Wilson 2016
O:England.
K:E
e3g2e|(afd)e2B|(c/d/ed) (eBG)|(cAF) (BGE)|
(e/f/g)f (gec)|(fdB) (^Ace)|g3(fed)|(edc)B3:|
|:(d/e/f)e (fdB)|Bdf- fed|(e/f/g)f gec-|ceg- gfe|
(f/g/a)g (af)d|(ge)c (^Bdf)|(ag)f (ed)c|(ag^B)c2d|
(c/d/e)d (eB)G|(EB=d) (cBA)|(c/d/e)c (ag)a|(cf)ed3|
(g/a/b)g (af)d|(ec)^A (Bc)d|(eB)G (ca)g|1fede2E:|2fede3:|

